X: 01005
T: BAT IN D' BAT'ROOM
C: Bob McQuillen Apr '75
B: Bob's Note Book 1 #5
%R: jig
Z: 2019 John Chambers <jc:trillian.mit.edu>
M: 6/8
L: 1/8
K: D
Bc \
| def gab | agf edc | def gab | agf e2A |\
| def gab | agf edc | def edB | ABA A :|
|: Bc \
| def edB | ABA ABc | def edc | B>cB B2A |\
| def ede | fga gfe | def gfe | fdd d :|
%%begintext align
%% He got sick of
%% that damn belfry.
%%endtext

%%sep 1 1 500

%%sep 1 1 500

